X:17
T:4 bare legg's in a bed
T:Scotch Portion
Z:Jack Campin <http://www.campin.me.uk/>
S:NLS MS.21716
M:9/4
L:1/4
Q:3/4=100
K:G Dorian
A2B cBA BAG|^FAA A2G  FED |  BAB  cBc   d3 |DGG G2A BAG:|
f2f fgf e2d| cAB A2G ^F>ED|[1 g2g g>ag ^f2d|
                                            dgg g2a bag:|\
                           [2 BAB cBc   d3 |DGG G2A BAG|]
